X:1
T:Missionary’s Farewell
T:Isaiah Baltzell (1832-1893)
T:Missionary’s Farewell
T:Public Domain
T:Public Domain
T:Public Domain
C:Isaiah Baltzell (1832-1893)
Z:Public Domain
%%score ( 1 2 ) 3
L:1/8
M:4/4
K:Bb
V:1 treble 
V:2 treble 
V:3 bass 
V:1
 [B,D]>[CE] | [DF]4- [DF]>[DF] [DB]>[Ec] | [Fd]6 [Ec]>[DB] | [EG]4- [EG]>[FB] [EA]>[DB] | %4
w: 1.~Far a-|way, * be- yond the|sea, Where the|fields * are bright and|
w: 2.~Hark! I|hear * the Mas- ter|say, “Up, ye|reap- * ers! why so|
w: 3.~Just be-|yond * the roll- ing|tide The up-|lift- * ed hand I|
w: 4.~Fa- ther,|mo- * ther, sis- ter|dear, I must|bid * you all a-|
w: 5.~Bear me|on, * thou rest- less|sea, Let the|winds * the can- vas|
 [Fc]6 [B,D]>[CE] | [DF]4- [DF]>[DF] [DB]>[Ec] | [Fd]6 [Ec]>[DB] | [EG]4- [EG]>[Ge] [Fd]>[Ec] | %8
w: fair, There’s a|call, * a plaint- ive|plea; I must|hast- * en to be|
w: slow?” To the|vine- * yard far a-|way, Earth- ly|kin- * dred, let me|
w: see; Lo! the|gates * are o- pen|wide, And the|lost * are call- ing|
w: dieu; Hark! the|call * is sound- ing|clear, There’s a|work * for me to|
w: swell; Af- ric’s|shore * I long to|see, Na- tive|land, * fare- well, fare-|
 [DB]6 ||"^Refrain" [Fc]>[FB] | (F>F F>F [FA]>)[EF] [EG]>[EF] | ([Fd]4 [DB]2) [Ge]>[Ge] | %12
w: there.||||
w: go.|Let me|go, * * * * I can- not|’Tis * the Mas-|
w: me.||||
w: do.||||
w: well.||||
 (E>E E>E [EG]>)[FB] [EA]>[DB] | [Fc]6 [DF]>[DF] | (F>F F>F [Fd]>)[FB] [Fc]>[_Ad] | %15
w: |||
w: ter * * * * call- ing me;|me go, I|must * * * * o- bey; Na-|
w: |||
w: |||
w: |||
 [Ge]6 [EB]>[EG] | (D>D D>D [DF]>)[Fd] [Fd]>[Ec] | [DB]6 |] %18
w: |||
w: * land, fare-|* * * * * well to thee.||
w: |||
w: |||
w: |||
V:2
 x2 | x8 | x8 | x8 | x8 | x8 | x8 | x8 | x6 || x2 | A4- x4 | x8 | G4- x4 | x8 | d4- x4 | x8 | %16
w: ||||||||||||||||
w: ||||||||||stay,||Let||tive||
 F4- x4 | x6 |] %18
w: ||
w: ||
V:3
 z2 | z2 [B,,B,]>[B,,B,] [B,,B,]>[B,,B,] [B,,B,]>[B,,B,] | [B,,B,]6 z2 | %3
w: |~ ~ ~ ~ ~ ~|~|
 z2 [E,B,]>[E,B,] [E,B,]>[D,B,] [C,F,]>[B,,F,] | [F,A,]6 z2 | %5
w: ~ ~ ~ ~ ~ ~|~|
 z2 [B,,B,]>[B,,B,] [B,,B,]>[B,,B,] [B,,B,]>[B,,B,] | [B,,B,]6 z2 | %7
w: ~ ~ ~ ~ ~ ~|~|
 z2 [E,B,]>[E,B,] [E,B,]>[E,B,] [F,B,]>[F,A,] | [B,,F,]6 || [F,A,]>[F,D] | %10
w: ~ ~ ~ ~ ~ ~|~|~ ~|
 [F,C]>[F,C] [F,C]>[F,C] [F,C]>[F,A,] [F,A,]>[F,A,] | [B,,B,]6 [E,B,]>[E,B,] | %12
w: ~ I can- not stay, ~ ~ ~|~ ~ ~|
 [E,B,]>[E,B,] [E,B,]>[E,B,] [E,B,]>[D,B,] [C,F,]>[B,,F,] | [F,A,]6 [B,,B,]>[B,,B,] | %14
w: Mas- ter, ’tis the Mas- ter, ~ ~|~ ~ ~|
 [B,,B,]>[B,,B,] [B,,B,]>[B,,B,] [B,,B,]>[D,B,] [F,A,]>[B,,B,] | [E,B,]6 [E,G,]>[E,B,] | %16
w: ~ I must o- bey, ~ ~ ~|~ ~ ~|
 [F,B,]>[F,B,] [F,B,]>[F,B,] [F,B,]>[F,B,] [F,B,]>[F,A,] | [B,,F,]6 |] %18
w: Fare- well to thee. * * * *||

